polaris-icons/icons/new-icons/BarcodeMajor.svg

<svg width="20" height="20" viewBox="0 0 20 20" fill="none" xmlns="http://www.w3.org/2000/svg">
<path d="M4.5 6.25C4.5 5.83579 4.83579 5.5 5.25 5.5H5.73706C6.15128 5.5 6.48706 5.16421 6.48706 4.75C6.48706 4.33579 6.15128 4 5.73706 4H5.25C4.00736 4 3 5.00736 3 6.25V6.75C3 7.16421 3.33579 7.5 3.75 7.5C4.16421 7.5 4.5 7.16421 4.5 6.75V6.25Z" fill="#4A4A4A"/>
<path d="M4.5 13.7598C4.5 14.174 4.83579 14.5098 5.25 14.5098H5.75C6.16421 14.5098 6.5 14.8456 6.5 15.2598C6.5 15.674 6.16421 16.0098 5.75 16.0098H5.25C4.00736 16.0098 3 15.0024 3 13.7598V13.2598C3 12.8456 3.33579 12.5098 3.75 12.5098C4.16421 12.5098 4.5 12.8456 4.5 13.2598V13.7598Z" fill="#4A4A4A"/>
<path d="M14.75 5.5C15.1642 5.5 15.5 5.83579 15.5 6.25V6.75C15.5 7.16421 15.8358 7.5 16.25 7.5C16.6642 7.5 17 7.16421 17 6.75V6.25C17 5.00736 15.9926 4 14.75 4H14.25C13.8358 4 13.5 4.33579 13.5 4.75C13.5 5.16421 13.8358 5.5 14.25 5.5H14.75Z" fill="#4A4A4A"/>
<path d="M15.5 13.7598C15.5 14.174 15.1642 14.5098 14.75 14.5098H14.25C13.8358 14.5098 13.5 14.8456 13.5 15.2598C13.5 15.674 13.8358 16.0098 14.25 16.0098H14.75C15.9926 16.0098 17 15.0024 17 13.7598V13.2598C17 12.8456 16.6642 12.5098 16.25 12.5098C15.8358 12.5098 15.5 12.8456 15.5 13.2598V13.7598Z" fill="#4A4A4A"/>
<path d="M6 7.5C6 7.22386 6.22386 7 6.5 7C6.77614 7 7 7.22386 7 7.5V12.5C7 12.7761 6.77614 13 6.5 13C6.22386 13 6 12.7761 6 12.5V7.5Z" fill="#4A4A4A"/>
<path d="M10.5 7C10.2239 7 10 7.22386 10 7.5V12.5C10 12.7761 10.2239 13 10.5 13C10.7761 13 11 12.7761 11 12.5V7.5C11 7.22386 10.7761 7 10.5 7Z" fill="#4A4A4A"/>
<path d="M8 7.625C8 7.27982 8.27982 7 8.625 7C8.97018 7 9.25 7.27982 9.25 7.625V12.375C9.25 12.7202 8.97018 13 8.625 13C8.27982 13 8 12.7202 8 12.375V7.625Z" fill="#4A4A4A"/>
<path d="M13 7C12.4477 7 12 7.44772 12 8V12C12 12.5523 12.4477 13 13 13C13.5523 13 14 12.5523 14 12V8C14 7.44772 13.5523 7 13 7Z" fill="#4A4A4A"/>
</svg>

<svg viewBox="0 0 20 20" xmlns="http://www.w3.org/2000/svg"><path d="M4.5 6.25a.75.75 0 0 1 .75-.75h.487a.75.75 0 1 0 0-1.5h-.487a2.25 2.25 0 0 0-2.25 2.25v.5a.75.75 0 0 0 1.5 0v-.5Z" fill="#5C5F62"/><path d="M4.5 13.76c0 .414.336.75.75.75h.5a.75.75 0 0 1 0 1.5h-.5a2.25 2.25 0 0 1-2.25-2.25v-.5a.75.75 0 0 1 1.5 0v.5Z" fill="#5C5F62"/><path d="M14.75 5.5a.75.75 0 0 1 .75.75v.5a.75.75 0 0 0 1.5 0v-.5a2.25 2.25 0 0 0-2.25-2.25h-.5a.75.75 0 0 0 0 1.5h.5Z" fill="#5C5F62"/><path d="M15.5 13.76a.75.75 0 0 1-.75.75h-.5a.75.75 0 0 0 0 1.5h.5a2.25 2.25 0 0 0 2.25-2.25v-.5a.75.75 0 0 0-1.5 0v.5Z" fill="#5C5F62"/><path d="M6 7.5a.5.5 0 0 1 1 0v5a.5.5 0 0 1-1 0v-5Z" fill="#5C5F62"/><path d="M10.5 7a.5.5 0 0 0-.5.5v5a.5.5 0 0 0 1 0v-5a.5.5 0 0 0-.5-.5Z" fill="#5C5F62"/><path d="M8 7.625a.625.625 0 1 1 1.25 0v4.75a.625.625 0 1 1-1.25 0v-4.75Z" fill="#5C5F62"/><path d="M13 7a1 1 0 0 0-1 1v4a1 1 0 1 0 2 0v-4a1 1 0 0 0-1-1Z" fill="#5C5F62"/></svg>
